X:38
T:Jobe's Q.S. * 
C:By Thos B. Jobe Comdr. Burkholder Post.115 G.A.R. Yellow Springs O.
B:American Veteran Fifer #38
M:2/4
L:1/16
Q:1/4=90
K:G
{c}B2{c}B2{c}B2{c}B2|{c}BAGB AGEG|DCDE GFGA|BAGB A2D2|{c}B2{c}B2{c}B2{c}B2|{c}BAGB AGEG|DCDE GFGA|
BGAF G4:||:Bd2e dBAG|Bdge dBAG|BAGB A4|Bd2e dBAG|Bdgd dBAG|Bd2e dBAG|AGFA G4:|
